client/public/img/game/shared/particles/casings/enbloc.svg

<?xml version="1.0" encoding="UTF-8" standalone="no"?>
<svg
   width="36"
   height="25"
   viewBox="0 0 36 25"
   fill="none"
   version="1.1"
   id="svg5"
   xmlns="http://www.w3.org/2000/svg"
   xmlns:svg="http://www.w3.org/2000/svg">
  <defs
     id="defs5" />
  <path
     d="M4.71814 1.11426H31.1032C32.5516 1.32457 33.6671 2.03113 33.6671 2.39042V4.08071H2.1543V2.39042C2.1543 2.03113 3.26972 1.32457 4.71814 1.11426Z"
     fill="#333634"
     stroke="#252725"
     stroke-width="2"
     stroke-miterlimit="3.99393"
     id="path1" />
  <path
     d="M5.62355 23.6135H30.1994C33.1188 23.0066 34.0452 22.126 34.0452 21.7092V17.12L34.6901 15.7652V3.30957C33.7217 3.76826 32.6118 4.07872 32.1736 4.07872H3.64934C3.21118 4.07872 2.10126 3.76826 1.13281 3.30957V15.7652L1.77778 17.12V21.7092C1.77778 22.126 2.70417 23.0066 5.62355 23.6135Z"
     fill="#454946"
     id="path2" />
  <path
     d="M29.1743 7.07921C29.6124 7.07921 30.7223 6.76875 31.6908 6.31006V7.31011C30.7223 7.7688 29.6124 8.07927 29.1743 8.07927C29.1743 8.07927 21.7998 8.30965 17.9123 8.30965C14.0248 8.30965 6.65031 8.07927 6.65031 8.07927C6.21216 8.07927 5.10224 7.7688 4.13379 7.31011V6.31006C5.10224 6.76875 6.21216 7.07921 6.65031 7.07921C6.65031 7.07921 14.0248 7.30959 17.9123 7.30959C21.7998 7.30959 29.1743 7.07921 29.1743 7.07921Z"
     fill="#3E423F"
     stroke="#252725"
     stroke-miterlimit="3.99393"
     id="path3" />
  <path
     d="M30.2009 23.616H5.62506C2.70569 23.0091 1.7793 22.1285 1.7793 21.7116V20.4297C1.7793 20.8466 2.70569 21.7271 5.62506 22.334H30.2009C33.1203 21.7271 34.0467 20.8466 34.0467 20.4297V21.7116C34.0467 22.1285 33.1203 23.0091 30.2009 23.616Z"
     fill="#3E423F"
     stroke="#252725"
     stroke-miterlimit="3.99393"
     id="path4" />
  <path
     d="M5.62355 23.6135H30.1994C33.1188 23.0066 34.0452 22.126 34.0452 21.7092V17.12L34.6901 15.7652V3.30957C33.7217 3.76826 32.6118 4.07872 32.1736 4.07872H3.64934C3.21118 4.07872 2.10126 3.76826 1.13281 3.30957V15.7652L1.77778 17.12V21.7092C1.77778 22.126 2.70417 23.0066 5.62355 23.6135Z"
     stroke="#252725"
     stroke-width="2"
     stroke-miterlimit="3.99393"
     id="path5" />
</svg>

<svg xmlns="http://www.w3.org/2000/svg" width="36" height="25" fill="none"><path fill="#333634" stroke="#252725" stroke-miterlimit="3.994" stroke-width="2" d="M4.718 1.114h26.385c1.449.21 2.564.917 2.564 1.276v1.69H2.154V2.39c0-.359 1.116-1.065 2.564-1.276Z"/><path fill="#454946" d="M5.624 23.614h24.575c2.92-.607 3.846-1.488 3.846-1.905V17.12l.645-1.355V3.31c-.968.458-2.078.769-2.516.769H3.649c-.438 0-1.548-.31-2.516-.77v12.456l.645 1.355v4.59c0 .416.926 1.297 3.846 1.903"/><path fill="#3E423F" stroke="#252725" stroke-miterlimit="3.994" d="M29.174 7.08c.438 0 1.548-.311 2.517-.77v1c-.969.459-2.079.77-2.517.77 0 0-7.374.23-11.262.23-3.887 0-11.262-.23-11.262-.23-.438 0-1.548-.311-2.516-.77v-1c.968.459 2.078.77 2.516.77 0 0 7.375.23 11.262.23s11.262-.23 11.262-.23ZM30.2 23.616H5.626c-2.92-.607-3.846-1.488-3.846-1.904V20.43c0 .417.927 1.297 3.846 1.904h24.576c2.92-.607 3.846-1.487 3.846-1.904v1.282c0 .416-.927 1.297-3.846 1.904Z"/><path stroke="#252725" stroke-miterlimit="3.994" stroke-width="2" d="M5.624 23.614h24.575c2.92-.607 3.846-1.488 3.846-1.905V17.12l.645-1.355V3.31c-.968.458-2.078.769-2.516.769H3.649c-.438 0-1.548-.31-2.516-.77v12.456l.645 1.355v4.59c0 .416.926 1.297 3.846 1.903Z"/></svg>
